icons/bugsee.svg

<?xml version="1.0" encoding="UTF-8"?>
<svg width="256px" height="131px" viewBox="0 0 256 131" version="1.1" xmlns="http://www.w3.org/2000/svg" xmlns:xlink="http://www.w3.org/1999/xlink" preserveAspectRatio="xMidYMid">
	<g>
		<path d="M256,93.602 L246.471,93.602 C213.506,35.139 133.666,70.165 148.347,130.383 L131.252,130.383 L131.252,114.399 L126.713,114.399 L126.713,130.383 L110.535,130.383 L110.535,114.254 L89.578,114.254 L89.578,130.383 L74.222,130.383 L74.222,114.206 L68.717,114.206 L68.717,130.383 L53.216,130.383 L53.216,114.254 L42.447,114.254 L42.447,130.383 L0,130.383 C0,33.098 92.09,-16.578 168.002,5.137 C168.927,2.722 171.124,0.942 174.423,0 C177.527,1.712 179.759,4.76 180.868,9.524 C183.234,10.477 185.577,11.503 187.893,12.606 C187.893,12.606 192.097,8.354 197.988,8.403 C200.982,12.749 200.934,19.813 200.934,19.813 C224.83,34.983 244.729,59.247 256,93.602" fill="#FC5252"></path>
		<path d="M190.1969,39.7741 C190.1969,47.0281 184.3159,52.9091 177.0619,52.9091 C169.8079,52.9091 163.9269,47.0281 163.9269,39.7741 C163.9269,32.5201 169.8079,26.6391 177.0619,26.6391 C184.3159,26.6391 190.1969,32.5201 190.1969,39.7741" fill="#F9FFFF"></path>
		<path d="M187.1071,43.6374 C187.1071,46.4114 184.8581,48.6594 182.0851,48.6594 C179.3111,48.6594 177.0621,46.4114 177.0621,43.6374 C177.0621,40.8644 179.3111,38.6154 182.0851,38.6154 C184.8581,38.6154 187.1071,40.8644 187.1071,43.6374" fill="#FC5252"></path>
	</g>
</svg>

<svg xmlns="http://www.w3.org/2000/svg" viewBox="0 0 256 130.383">
  <path fill="#fc5252" d="M256 93.602h-9.529c-32.965-58.463-112.805-23.437-98.124 36.781h-17.095v-15.984h-4.539v15.984h-16.178v-16.129H89.578v16.129H74.222v-16.177h-5.505v16.177H53.216v-16.129H42.447v16.129H0C0 33.098 92.09-16.578 168.002 5.137c.925-2.415 3.122-4.195 6.421-5.137 3.104 1.712 5.336 4.76 6.445 9.524 2.366.953 4.709 1.979 7.025 3.082 0 0 4.204-4.252 10.095-4.203 2.994 4.346 2.946 11.41 2.946 11.41C224.83 34.983 244.729 59.247 256 93.602"/>
  <path fill="#f9ffff" d="M190.197 39.774c0 7.254-5.881 13.135-13.135 13.135s-13.135-5.88-13.135-13.135c0-7.254 5.88-13.135 13.135-13.135 7.254 0 13.135 5.881 13.135 13.135"/>
  <path fill="#fc5252" d="M187.107 43.637a5.022 5.022 0 1 1-10.044 0 5.022 5.022 0 0 1 10.044 0"/>
</svg>
